X:1
T:The Well-Tempered Clavier Part I Fuga XIV
T:BWV 859
T:J. S. Bach
%%score { ( 1 4 ) | ( 2 3 ) }
L:1/8
M:6/4
K:A
V:1 treble nm="Harp"
V:4 treble 
V:2 bass 
V:3 bass 
V:1
 z12 | z12 | z12 | z2 C2 ^D2 E6- | E2 ^D^E F2- F2 EDE^^F | G3 FEG FE ^D4 | z EFG A2- AFG^A B2- | %7
 BBBAAG GFFEE^D | ^DEE=DDC C4- C^D | =F^F G2 C2 F4 ^E2 | F6 E2 FG A2 | G6 F6 | E3 F =G2- G2 FEDC | %13
 D3 E F2- F2 EDCB, | C2 ^D2 ^E2 F6- | F2 G2 F2 =F2 ^F^E F2 | G4 F2- FE D2 C2- | C3 GAB E3 ABc | %18
 F6- FFFEE^D | ^DGGFFE E2 c2 =B2 | ^A6- A2 B=A G2- | ^G2 ABAG F3 GAF | GA B4 c4 F2 | B3 EFG A4 D2 | %24
 C4 A2 GccBB^A | ^ABB=AAG G4- G^A | ^Bc ^d2 G2 c4 B2 | c3 Bc^d e3 cd^e | f2 F2 ^E2 FCFGAF | %29
 B3 FGA =FC ^F2 C2- | C^D ^E2 F=E =DC B,4 | A,C F4- F6- | FF E4 D3 FG^A | BAGF^EF EF G4- | %34
 GGFEE^D D6- | DFE=DDC C6- | C2 B,4 z GF=EE^D | ^DEE=DDC C4- C^D | ^E2 FE F2- F4 E2 | C12 |] %40
V:2
 z2 F,2 G,2 A,6- | A,2 G,^A, B,2- B,2 A,G,A,^B, | %2
 C3 B,A,C B,A, A,/4G,/4A,/4G,/4 A,/4G,/4A,/4G,/4 A,/4G,/4A,/4G,/4 A,/4G,/4A,/4G,/4 | %3
 F,6 z CCB,B,^A, | ^A,B,B,=A,A,G, G,4- G,^A, | ^B,C ^D2 G,2 C4 B,2 | C3 B,C^D E3 CD[I:staff -1]^E | %7
 F2 C2 B,2 C2 A,2 F,2 | B,6[I:staff +1] ^E,C, F,2[I:staff -1] C2- | C^D ^E2 F=E =DC B,4- | %10
 B,A,B,C D2- DC^D^E F2- | FFE^DCB, ^A,2 ^B,C D2- | D^D C2 B,2 ^A,B, C4- | CC B,2 A,2 G,A, B,4- | %14
 B,DCB,B,A, A,B, C4 | B,6[I:staff +1] C6- | C^D ^E2 F=E =DCB,A,G,B, | A,2 z2 z8 | %18
 B,B,,B,,A,,A,,G,, G,,A,A,G,G,F, | F,2 G,2 G,,2 C,3 C,D,E, | F,=G,F,E,D,C, B,,D,G,,F,,F,,^E,, | %21
 ^E,,^E,F,G,G,A, A,DDCCB, | B,A,G,DCB, ^A,B,B,=A,A,G, | G,F,E,B,A,G, F,G,G,F,F,^E, | %24
 ^E,2 F,2 F,,2 C,^D,=E,F,=G,E, | F,F,,B,,C,D,B,, C,C,,C,^B,,C,E, | ^D,C,^B,,G,,C,E, A,F,G,F,G,G,, | %27
 C,2 z2 z8 | z2 F,2 G,2 A,6- | A,2 G,^A, B,2- B,2 A,G,A,^B, | C3 B,A,C B,A, G,4 | %31
 F,2 A,4- A,2 F,2 B,2- | B,4 CB, A,4 z2 | z F, B,3 A, G,3 G, C2- | CE^DCCB, B,6- | %35
 B,^DCB,B,A, A,6- | A,3 A,G,F, ^E,B,A,G,G,F, | F,G,G,F,F,^E, E,2 F,E, F,2 | %38
 G,2[I:staff -1] C4[I:staff +1] z F,C[I:staff -1]B,B,^A, | ^A,12 |] %40
V:3
 x12 | x12 | x12 | x12 | x12 | x12 | x12 | z2 F,,2 G,,2 A,,6- | %8
 A,,2 G,,^A,, B,,2- B,,2 A,,G,,A,,^B,, | C,3 B,,A,,C, B,,A,, G,,4 | F,,3 E,,F,,G,, A,,4- A,,B,, | %11
 C,B,,C,^D, E,2- E,F,E,D,C,B,, | C,3 C,^D,E, F,3 F,,G,,^A,, | B,,3 B,,C,D, E,3 E,,F,,G,, | %14
 A,,B,,A,,G,,G,,F,, F,,F,F,E,E,^D, | ^D,E,E,=D,D,C, C,4- C,^D, | ^E,F, G,2 C,2 F,4 ^E,2 | %17
 F,3 ^E,F,G, A,3 F,G,^A, | x12 | x12 | x12 | x12 | x12 | x12 | x12 | x12 | x12 | x12 | x12 | x12 | %30
 x12 | z2 F,2 E,2 ^D,6- | D,2 E,=D, C,2- C,2 D,E,D,C, | B,,3 C,D,B,, C,^D, ^E,4 | %34
 F,6- F,A,G,F,F,E, | E,6- E,G,F,E,E,D, | D,6 C,6- | C,12- | C,B,,A,,G,,F,,A,, D,B,, C,2 C,,2 | %39
 !fermata!F,,12 |] %40
V:4
 x12 | x12 | x12 | x12 | x12 | x12 | x12 | x12 | x12 | x12 | x12 | x12 | x12 | x12 | z2 F2 G2 A6- | %15
 A2 G^A B2- B2 =AGA^B | c3 BAc BA G4 | FABc d2- d Bc^d e2- | eddcc^B B2 c4- | c2 ^B4 c^def =g2- | %20
 g2 c2 fe dc d4 | c2 ^d2 ^e2 f6- | f4 e2- e2 d4- | d2 c4- c2 B4- | BGAcf^d e6- | %25
 e2 ^d^e f2- f2 ede^^f | g3 feg fe ^d4 | cefg a2- afg^a b2- | baaggf fa/g/ fee^d | %29
 ^dee=ddc c4 c^d | ^ef g2 c2 f4 e2 | fedccB BfBAAG | G3 BAG F^EFABc | d6- dGcBAG | A6 AcBAAG | %35
 G6- GBAGGF | F^E F2 G2 A6- | A2 G^A B2- B2 AGA^B | c3 BAc BA G4 | !fermata!F12 |] %40

